Numix/22/status/nm-tech-edge.svg

<svg xmlns="http://www.w3.org/2000/svg" viewBox="0 0 22 22">
 <path d="m 20 20 0 -16 -16 16" style="fill:#ececec;fill-opacity:1;stroke:none;fill-rule:evenodd"/>
 <path d="m 2 2 0 10 6 0 0 -2 -4 0 l 0 -2 3 0 0 -2 -3 0 0 -2 4 0 0 -2" style="fill:#ececec;fill-opacity:1;stroke:none;fill-rule:evenodd"/>
</svg>

<?xml version="1.0" encoding="UTF-8" standalone="no"?>
<svg
   xmlns:dc="http://purl.org/dc/elements/1.1/"
   xmlns:cc="http://creativecommons.org/ns#"
   xmlns:rdf="http://www.w3.org/1999/02/22-rdf-syntax-ns#"
   xmlns:svg="http://www.w3.org/2000/svg"
   xmlns="http://www.w3.org/2000/svg"
   xmlns:sodipodi="http://sodipodi.sourceforge.net/DTD/sodipodi-0.dtd"
   xmlns:inkscape="http://www.inkscape.org/namespaces/inkscape"
   viewBox="0 0 22 22"
   id="svg3055"
   version="1.1"
   inkscape:version="0.91 r"
   width="100%"
   height="100%"
   sodipodi:docname="nm-tech-edge.svg">
  <metadata
     id="metadata3075">
    <rdf:RDF>
      <cc:Work
         rdf:about="">
        <dc:format>image/svg+xml</dc:format>
        <dc:type
           rdf:resource="http://purl.org/dc/dcmitype/StillImage" />
        <dc:title />
      </cc:Work>
    </rdf:RDF>
  </metadata>
  <defs
     id="defs3073" />
  <sodipodi:namedview
     pagecolor="#ffffff"
     bordercolor="#666666"
     borderopacity="1"
     objecttolerance="10"
     gridtolerance="10"
     guidetolerance="10"
     inkscape:pageopacity="0"
     inkscape:pageshadow="2"
     inkscape:window-width="1920"
     inkscape:window-height="1056"
     id="namedview3071"
     showgrid="true"
     inkscape:zoom="21.454545"
     inkscape:cx="19.898187"
     inkscape:cy="13.438756"
     inkscape:window-x="0"
     inkscape:window-y="24"
     inkscape:window-maximized="1"
     inkscape:current-layer="svg3055"
     showguides="false">
    <inkscape:grid
       type="xygrid"
       id="grid4137" />
  </sodipodi:namedview>
  <path
     sodipodi:nodetypes="cccc"
     inkscape:connector-curvature="0"
     id="path4139"
     d="M 20,20 20,3.9999996 4,20 Z"
     style="fill:#ececec;fill-opacity:1;fill-rule:evenodd;stroke:none;stroke-width:1px;stroke-linecap:butt;stroke-linejoin:miter;stroke-opacity:1" />
  <g
     style="font-style:normal;font-variant:normal;font-weight:bold;font-stretch:normal;font-size:12.34567928px;line-height:125%;font-family:Ubuntu;-inkscape-font-specification:'Ubuntu Bold';letter-spacing:0px;word-spacing:0px;fill:#000000;fill-opacity:1;stroke:none;stroke-width:1px;stroke-linecap:butt;stroke-linejoin:miter;stroke-opacity:1"
     id="g4169"
     transform="matrix(-1,0,0,1,-12.253709,-14.565582)" />
  <path
     style="fill:#ececec;fill-opacity:1;fill-rule:evenodd;stroke:none;stroke-width:1px;stroke-linecap:butt;stroke-linejoin:miter;stroke-opacity:1"
     d="m 2,2 0,10 6,0 0,-1.999999 -4,0 L 4,8 7,8 7,6 4,6 4,4 8,4 8,2 Z"
     id="path4140"
     inkscape:connector-curvature="0"
     sodipodi:nodetypes="ccccccccccccc" />
</svg>
